!!!!SEGMENT: pl-cz--ii-16--007_szlagorski-walenty--talnce-mazur-1.krn
!!!cenid: 18xx:1071
!!!COM: Szlagórski, Walenty
!!!COM-rismid: pe30111815
!!!CDT: 1801-1863/07/16
!!!CNT: Polish
!!!GTL: Tańce
!!!OTL: Mazur 1
!!!PDT:
!!!AGN: Secular; Mazurka
!!!SMS-siglum: PL-CZ
!!!SMS-shelfmark: II-16
!!!SMS-shelfwork: 007 G
!!!SMS-variant:
!!!SMS-altvar:
!!!NIFC-rismid: 300001300
!!!URL-scan: http://repozytorium.nifc.pl/skany/pl-cz-nut--ii-16
!!!ONB-nifc: UWAGA: zbiór zawiera Walce nr 1-5, Galop, Mazury nr 1-4
**kern	**dynam	**kern	**kern	**dynam	**kern	**kern	**dynam	**kern	**dynam	**kern	**kern	**kern
*part9	*part9	*part8	*part7	*part7	*part6	*part5	*part5	*part4	*part4	*part3	*part2	*part1
*staff9	*	*staff8	*staff7	*	*staff6	*staff5	*	*staff4	*	*staff3	*staff2	*staff1
*I"Baſso	*	*I"Violino 2do.	*I"Violino 1mo	*	*I"Clarino in D.	*I"Corno 2do in D.	*	*I"Corno 1mo in D.	*	*I"Clarinetto 2do in A	*I"Clarinetto Primo in A	*I"Flauto
*I'b	*	*I'vl 2	*I'vl 1	*	*I'clno	*I'C. II	*	*I'cor 1	*	*I'cl 2	*I'cl 1	*I'fl
*clefF4	*	*clefG2	*clefG2	*	*clefG2	*clefG2	*	*clefG2	*	*clefG2	*clefG2	*clefG2
*ITrd0c0	*	*	*	*	*ITrd-1c-2	*ITrd6c10	*	*ITrd6c10	*	*ITrd2c3	*ITrd2c3	*
*k[f#c#]	*	*k[f#c#]	*k[f#c#]	*	*k[f#c#]	*k[f#c#]	*	*k[f#c#]	*	*k[f#c#]	*k[f#c#]	*k[f#c#]
*D:	*	*D:	*D:	*	*D:	*D:	*	*D:	*	*D:	*D:	*D:
*M3/8	*	*M3/8	*M3/8	*	*M3/8	*M3/8	*	*M3/8	*	*M3/8	*M3/8	*M3/8
*>[A,A,B,B,C,C,A,A]	*	*>[A,A,B,B,C,C,A,A]	*>[A,A,B,B,C,C,A,A]	*	*>[A,A,B,B,C,C,A,A]	*>[A,A,B,B,C,C,A,A]	*	*>[A,A,B,B,C,C,A,A]	*	*>[A,A,B,B,C,C,A,A]	*>[A,A,B,B,C,C,A,A]	*>[A,A,B,B,C,C,A,A]
=1	=1	=1	=1	=1	=1	=1	=1	=1	=1	=1	=1	=1
*>A	*	*>A	*>A	*	*>A	*>A	*	*>A	*	*>A	*>A	*>A
*	*	*	*^	*	*	*	*	*	*	*	*	*
!	!LO:DY:rj	!	!LO:N:cue	!	!	!	!	!LO:DY:rj	!	!	!	!	!
8D\L	f	8A/L 8d	8ddd\L	8f#\L	.	8d/L	8F#/L	ff	8d\L	ff	8f#\L	8dd\L	8ddd\L
!	!	!	!LO:N:cue	!	!	!	!	!	!	!	!	!	!
8D\	.	8A/ 8d	8aa\	8f#\	.	8A/	8F#/	.	8d\	.	8f#\	8a\	8aa\
!	!	!	!LO:N:cue	!	!	!	!	!	!	!	!	!	!
8D\J	.	8A/J 8d	8fff#\J	8f#\J	.	8f#/J	8F#/J	.	8d\J	.	8dd\J	8ff#\J	8ggg\J
=2	=2	=2	=2	=2	=2	=2	=2	=2	=2	=2	=2	=2	=2
!	!	!	!LO:N:cue	!	!	!	!	!	!	!	!	!	!
8D\L	.	8A/L	16.ccc#\LL	8e\L	.	8a/L	8A/L	.	8e\L	.	8g/L	16.cc#\LL	16.ccc#\LL
!	!	!	!LO:N:cue	!	!	!	!	!	!	!	!	!	!
.	.	.	32ddd\JJk	.	.	.	.	.	.	.	.	32dd\JJk	32ddd\JJk
!	!	!	!LO:N:cue	!	!	!	!	!	!	!	!	!	!
8D\	.	8c#/	8eee\L	8g\	.	8A/	8A/	.	8e\	.	8g/	8ee\L	8eee\L
!	!	!	!LO:N:cue	!	!	!	!	!	!	!	!	!	!
8D\J	.	8d/J	8ddd\J	8f#\J	.	8d/J	8F#/J	.	8d\J	.	8f#/J	8dd\J	8ddd\J
*	*	*	*v	*v	*	*	*	*	*	*	*	*	*
=3	=3	=3	=3	=3	=3	=3	=3	=3	=3	=3	=3	=3
*	*	*	*	*	*	*tremolo	*	*	*	*	*	*
*	*	*	*	*	*	*	*	*tremolo	*	*	*	*
!	!	!	!	!	!LO:TX:a:t=1	!	!	!	!	!	!	!
8G\L	.	8g/L	8bb\L	.	4.r	8D/L	.	8d\L	.	8b\L	8dd\L	8bb\L
8B\	.	8b/	8ddd\	.	.	8D/	.	8d\	.	8b\	8dd\	8ddd\
8G\J	.	8g/J	8bb\J	.	.	8D/J	.	8d\J	.	8g\J	8b\J	8bb\J
*	*	*	*	*	*	*	*	*Xtremolo	*	*	*	*
*	*	*	*	*	*	*Xtremolo	*	*	*	*	*	*
=4	=4	=4	=4	=4	=4	=4	=4	=4	=4	=4	=4	=4
8D\L	.	(<8e#X/L	(8gg#X\L	.	8d/L	8D/L	.	8D/L	.	8e#X\L	8b\L	(8gg#X\L
8D\J	.	8f#/J)	8aa\J)	.	8d/J	8D/J	.	8E/J	.	8f#\J	8a\J	8aa\J)
8r	.	8r	8r	.	8r	8r	.	8r	.	8r	8r	8r
=5	=5	=5	=5	=5	=5	=5	=5	=5	=5	=5	=5	=5
*	*	*	*^	*	*	*	*	*	*	*	*	*
!	!	!	!	!	!	!LO:TX:a:t=1	!	!	!	!	!	!	!LO:TX:a:t=3
!	!	!	!LO:N:cue	!	!	!	!	!	!	!	!	!	!LO:N:vis=0
4AA/	.	8r	16aa#X/LL	8r	.	4.r	8r	.	8r	.	8r	16aa#X\LL	2.r
!	!	!	!LO:N:cue	!	!	!	!	!	!	!	!	!	!
.	.	.	16bb/JJ	.	.	.	.	.	.	.	.	16bb\JJ	.
!	!	!	!LO:N:cue	!	!	!	!	!	!	!	!	!	!
.	.	8e/L	8.cc#/L	8A\L 8g	.	.	8A/L	.	8e\L	.	8g\L	8.cc#\L	.
8r	.	8e/J	.	8A\J 8g	.	.	8A/J	.	8e\J	.	8g\J	.	.
!	!	!	!LO:N:cue	!	!	!	!	!	!	!	!	!	!
.	.	.	16ee/Jk	.	.	.	.	.	.	.	.	16ee\Jk	.
!	!	!	!LO:LB:g=original	!	!	!	!	!	!	!	!	!	!
=6	=6	=6	=6	=6	=6	=6	=6	=6	=6	=6	=6	=6	=6
!	!	!	!LO:N:cue	!	!	!	!	!	!	!	!	!	!
4D\	.	8r	16.gg/LL	8r	.	8r	8r	.	8r	.	8r	16.gg\LL	.
!	!	!	!LO:N:cue	!	!	!	!	!	!	!	!	!	!
.	.	.	32ff#/JJk	.	.	.	.	.	.	.	.	32ff#\JJk	.
!	!	!	!LO:N:cue	!	!	!	!	!	!	!	!	!	!
.	.	8d/L	8dd/L	8A\L 8f#	.	16d/LL	8d\L	.	8f#\L	.	8f#/L	8dd\L	.
.	.	.	.	.	.	16f#/JJ	.	.	.	.	.	.	.
!	!	!	!LO:N:cue	!	!	!	!	!	!	!	!	!	!
8r	.	8d/J	16ff#/L	8A\J 8f#	.	8a/	8d\J	.	8f#\J	.	8f#/J	16ff#\L	.
!	!	!	!LO:N:cue	!	!	!	!	!	!	!	!	!	!
.	.	.	16aa/JJ	.	.	.	.	.	.	.	.	16aa\JJ	.
!	!	!	!	!	!	!	!	!	!	!	!	!LO:LB:g=original	!
=7	=7	=7	=7	=7	=7	=7	=7	=7	=7	=7	=7	=7	=7
!	!	!	!LO:N:cue	!	!	!LO:TX:a:t=1	!	!	!	!	!	!	!
4A\	.	8r	16gg/LL	4A\ 4f#	.	4.r	8r	.	8r	.	8r	(16aa#X\LL	4.r
!	!	!	!LO:N:cue	!	!	!	!	!	!	!	!	!	!
.	.	.	16ff#/JJ	.	.	.	.	.	.	.	.	16bb\JJ)	.
!	!	!	!LO:N:cue	!	!	!	!	!	!	!	!	!	!
.	.	8e/L	4dd/	.	.	.	8A/L	.	8e\L	.	8g/L	8.cc#\L	.
8r	.	8e/J	.	4A\ 4f#	.	.	8A/J	.	8e\J	.	8g/J	.	.
.	.	.	.	.	.	.	.	.	.	.	.	16ee\Jk	.
!LO:LB:g=original	!	!LO:LB:g=original	!	!	!	!	!	!	!	!	!	!	!LO:LB:g=original
=8	=8	=8	=8	=8	=8	=8	=8	=8	=8	=8	=8	=8	=8
8D\L	.	8d/L	8ryy	.	.	8d/L	8F#/L	.	8d\L	.	8f#/L	(16gg\LL	8r
.	.	.	.	.	.	.	.	.	.	.	.	16ff#\JJ)	.
!	!	!	!	!	!	!	!	!	!	!	!	!LO:TX:t=P:problem:w tej partii repetycja na linii taktowej	!
8D\J 8d	.	8d/J	8ryy	8r	.	8d/J	8F#/J	.	8d\J	.	8f#/J	4dd\	8r
!	!	!	!	!	!	!LO:LB:g=original	!	!	!	!	!	!	!
=:|!|:	=:|!|:	=:|!|:	=:|!|:	=:|!|:	=:|!|:	=:|!|:	=:|!|:	=:|!|:	=:|!|:	=:|!|:	=:|!|:	=:|!|:	=:|!|:
*>B	*	*>B	*>B	*	*>B	*>B	*	*>B	*	*>B	*>B	*>B	*>B
8r	.	8r	8ee\	8ryy	.	8r	8r	.	8r	.	8r	.	8eee\
*	*	*	*v	*v	*	*	*	*	*	*	*	*	*
!	!	!	!	!	!	!	!	!	!LO:LB:g=original	!	!LO:LB:g=original	!
=9	=9	=9	=9	=9	=9	=9	=9	=9	=9	=9	=9	=9
!	!	!	!	!	!LO:TX:a:t=4	!	!	!	!	!	!	!
4E\	.	8r	(16dd#X\LL	.	1.r	8d\L	.	8e\L	.	8d/L	8g#\L	(16ddd#X\LL
.	.	.	16ee\JJ)	.	.	.	.	.	.	.	.	16eee\JJ)
.	.	8d/L 8e	8.b\L	.	.	8d\	.	8e\	.	8d/	8g#\	8.bb\L
8r	.	8d/J 8e	.	.	.	8d\J	.	8e\J	.	8d/J	8g#\J	.
.	.	.	16ddn\Jk	.	.	.	.	.	.	.	.	16dddn\Jk
!	!	!	!	!	!	!LO:LB:g=original	!	!	!	!	!	!
=10	=10	=10	=10	=10	=10	=10	=10	=10	=10	=10	=10	=10
4AA\ 4A	.	8r	(16cc#/LL	.	.	8r	.	8r	.	8r	8r	(16ccc#\LL
.	.	.	16a/)	.	.	.	.	.	.	.	.	16aa\)
.	.	8c#/L 8e	16g#X'/	.	.	8A/L	.	8e\L	.	8c#/L	8a\L	16gg#X'\
.	.	.	16a/JJ	.	.	.	.	.	.	.	.	16aa'\
8r	.	8c#/J 8e	(16ff#\LL	.	.	8A/J	.	8e\J	.	8c#/J	8a\J	(16fff#\
.	.	.	16ee\JJ)	.	.	.	.	.	.	.	.	16eee\JJ)
=11	=11	=11	=11	=11	=11	=11	=11	=11	=11	=11	=11	=11
4E\	.	8r	(16dd#X\LL	.	.	8r	.	8r	.	8r	8r	(16ddd#X\LL
.	.	.	16ee\JJ)	.	.	.	.	.	.	.	.	16eee\JJ)
.	.	8d/L 8e	8b\L	.	.	8d\L	.	8e\L	.	8d/L	8g#\L	8.bb\L
8r	.	8d/J 8e	8ddn\J	.	.	8d\J	.	8e\J	.	8d/J	8g#\J	.
.	.	.	.	.	.	.	.	.	.	.	.	16ddd#\Jk
!	!	!	!LO:LB:g=original	!	!	!	!	!	!	!	!	!
=12	=12	=12	=12	=12	=12	=12	=12	=12	=12	=12	=12	=12
8AA\L 8A	.	8c#/L 8e	16cc#/LL	.	.	8A/	.	8e\	.	8c#/	8a\	16ccc#\LL
.	.	.	16g#X/JJ	.	.	.	.	.	.	.	.	16gg#X\JJ
8AA\J 8A	.	8c#/J 8e	4a/	.	.	4A/	.	4e\	.	4c#/	4a\	4aa\
8r	.	8r	.	.	.	.	.	.	.	.	.	.
!	!	!	!	!	!	!	!	!	!	!	!	!LO:LB:g=original
=13	=13	=13	=13	=13	=13	=13	=13	=13	=13	=13	=13	=13
*	*	*	*^	*	*	*	*	*	*	*	*	*
!	!	!	!LO:N:cue	!	!	!	!	!	!	!	!	!	!
4AA\ 4A	.	8r	16aan/LL	8r	.	8A/	8r	.	8r	.	8r	(>16aa#X\LL	(16aa#X\LL
!	!	!	!LO:N:cue	!	!	!	!	!	!	!	!	!	!
.	.	.	16bb/JJ	.	.	.	.	.	.	.	.	16bb\JJ)	16bb\JJ)
!	!	!	!LO:N:cue	!	!	!	!	!	!	!	!	!	!
.	.	8e/L	8.cc#/L	8A\L 8g	.	4a/	8A/L	.	8e\L	.	8g\L	8.cc#\L	8.ccc#\L
8r	.	8e/J	.	8A\J 8g	.	.	8A/J	.	8e\J	.	8g\J	.	.
!	!	!	!LO:N:cue	!	!	!	!	!	!	!	!	!	!
.	.	.	16ee/Jk	.	.	.	.	.	.	.	.	16ee\Jk	16eee\Jk
=14	=14	=14	=14	=14	=14	=14	=14	=14	=14	=14	=14	=14	=14
!	!	!	!LO:N:cue	!	!	!	!	!	!	!	!	!	!
4D\ 4d	.	8r	16gg/LL	8r	.	16.d/LL	8r	.	8r	.	8r	16gg\LL	(16ggg\LL
!	!	!	!LO:N:cue	!	!	!	!	!	!	!	!	!	!
.	.	.	16ff#/JJ	.	.	.	.	.	.	.	.	16ff#\JJ	16fff#\JJ)
.	.	.	.	.	.	32f#/JJK	.	.	.	.	.	.	.
!	!	!	!LO:N:cue	!	!	!	!	!	!	!	!	!	!
.	.	8d/L	8.dd/L	8A\L 8f#	.	8a/L	8A/L	.	8d\L	.	8f#/L	8.dd\L	4ddd\
8r	.	8d/J	.	8A\J 8f#	.	8d/J	8A/J	.	8d\J	.	8f#/J	.	.
!	!	!	!LO:N:cue	!	!	!	!	!	!	!	!	!	!
.	.	.	16aa/Jk	.	.	.	.	.	.	.	.	16aan\Jk	.
!	!	!	!	!	!	!	!	!	!	!	!	!LO:LB:g=original	!
=15	=15	=15	=15	=15	=15	=15	=15	=15	=15	=15	=15	=15	=15
!	!	!	!LO:N:cue	!	!	!	!	!	!	!	!	!	!
4AA\ 4A	.	8r	16aa#X/LL	8r	.	8A/	8r	.	8r	.	8r	(>16aa#X\LL	16aa#X\LL
!	!	!	!LO:N:cue	!	!	!	!	!	!	!	!	!	!
.	.	.	16bb/JJ	.	.	.	.	.	.	.	.	16bb\JJ)	16bb\JJ
!	!	!	!LO:N:cue	!	!	!	!	!	!	!	!	!	!
.	.	8e/L	8.cc#/L	8A\L 8g	.	4a/	8A/L	.	8e\L	.	8g\L	8.cc#\L	8.ccc#\L
8r	.	8e/J	.	8A\J 8g	.	.	8A/J	.	8e\J	.	8g\J	.	.
!	!	!	!LO:N:cue	!	!	!	!	!	!	!	!	!	!
.	.	.	16ee/Jk	.	.	.	.	.	.	.	.	16ee\Jk	16eee\Jk
=16	=16	=16	=16	=16	=16	=16	=16	=16	=16	=16	=16	=16	=16
!	!	!	!LO:N:cue	!	!	!	!	!	!	!	!	!	!
8D\L	.	8d/L	16gg/LL	8A\L 8f#	.	8d/	8d\	.	8f#\	.	8f#/L	16gg\LL	(16ggg\LL
!	!	!	!LO:N:cue	!	!	!	!	!	!	!	!	!	!
.	.	.	16ff#/JJ	.	.	.	.	.	.	.	.	16ff#\JJ	16fff#\JJ)
!	!	!	!LO:N:cue	!	!	!	!	!	!	!	!	!	!
8d\J	.	8d/J	4dd/	8A\J 8f#	.	4dd\	4F#/	.	4d\	.	8f#/J	4dd\	4ddd\
8r	.	8r	.	8r	.	.	.	.	.	.	8r	.	.
*	*	*	*v	*v	*	*	*	*	*	*	*	*	*
!	!	!LO:LB:g=original	!	!	!	!	!	!	!	!	!	!
=17:|!|:	=17:|!|:	=17:|!|:	=17:|!|:	=17:|!|:	=17:|!|:	=17:|!|:	=17:|!|:	=17:|!|:	=17:|!|:	=17:|!|:	=17:|!|:	=17:|!|:
*>C	*	*>C	*>C	*	*>C	*>C	*	*>C	*	*>C	*>C	*>C
*	*	*ok[f#cn]	*ok[f#cn]	*	*	*	*	*	*	*	*	*ok[f#cn]
*k[f#]	*	*k[f#]	*k[f#]	*	*k[f#]	*k[f#]	*	*k[f#]	*	*k[f#]	*k[f#]	*k[f#]
*	*	*	*^	*	*	*	*	*	*	*	*	*
!	!	!	!	!	!	!	!	!	!	!	!LO:TX:t=P:problem:w partii cl 2 nic nie ma o zmianie tonacji	!	!
!	!	!	!	!	!	!LO:TX:a:t=8	!LO:TX:a:t=4	!	!LO:TX:a:t=4	!	!LO:TX:a:t=4	!LO:TX:t=P:problem:w partii cl 1 nic nie ma o zmianie tonacji	!
!	!	!	!LO:N:cue	!	!	!	!LO:N:vis=00	!	!	!	!	!	!
4G\	.	8r	16.gg/LL	8r	p	1.r	1.r	.	1.r	.	1.r	16.g\LL	16.gg\LL
!	!	!	!LO:N:cue	!	!	!	!	!	!	!	!	!	!
.	.	.	32aa/JJk	.	.	.	.	.	.	.	.	32a\JJk	32aa\JJK
!	!	!	!LO:N:cue	!	!	!	!	!	!	!	!	!	!
.	.	8G/L 8d	8.bb/L	8B/L 8d	.	.	.	.	.	.	.	8.b\L	8.bb\L
8r	.	8G/J 8d	.	8B/J 8d	.	.	.	.	.	.	.	.	.
!	!	!	!LO:N:cue	!	!	!	!	!	!	!	!	!	!
.	.	.	16cccn/Jk	.	.	.	.	.	.	.	.	16ccnX\Jk	16cccn\Jk
!	!	!	!LO:LB:g=original	!	!	!	!	!	!	!	!	!	!LO:LB:g=original
=18	=18	=18	=18	=18	=18	=18	=18	=18	=18	=18	=18	=18	=18
*	*	*rep	*	*	*	*	*	*	*	*	*	*	*
!	!	!	!LO:N:cue	!	!	!	!	!	!	!	!	!	!
4G\	.	8r	(<16ccc#X/LL	8r	.	.	.	.	.	.	.	16cc#\LL	(>16ccc#X\LL
!	!	!	!LO:N:cue	!	!	!	!	!	!	!	!	!	!
.	.	.	16ddd/JJ)	.	.	.	.	.	.	.	.	16dd\JJ	16ddd\JJ)
!	!	!	!LO:N:cue	!	!	!	!	!	!	!	!	!	!
.	.	8G/L 8d	8.gg/L	8B/L 8d	.	.	.	.	.	.	.	8.g\L	8.gg\L
8r	.	8G/J 8d	.	8B/J 8d	.	.	.	.	.	.	.	.	.
!	!	!	!LO:N:cue	!	!	!	!	!	!	!	!	!	!
.	.	.	16bb/Jk	.	.	.	.	.	.	.	.	16b\Jk	16bb\Jk
*	*	*Xrep	*	*	*	*	*	*	*	*	*	*	*
!LO:LB:g=original	!	!	!	!	!	!	!	!	!	!	!	!	!
=19	=19	=19	=19	=19	=19	=19	=19	=19	=19	=19	=19	=19	=19
!	!	!	!LO:N:cue	!	!	!	!	!	!	!	!	!LO:TUP:a:problem:klamra łukowa	!LO:TUP:a:problem:klamra łukowa
4D\	.	8r	24aa/LL	8r	.	.	.	.	.	.	.	24a\LL	24aa\LL
!	!	!	!LO:N:cue	!	!	!	!	!	!	!	!	!	!
.	.	.	24bb/	.	.	.	.	.	.	.	.	24b\	24bb\
!	!	!	!LO:N:cue	!	!	!	!	!	!	!	!	!	!
.	.	.	24ccc/JJ	.	.	.	.	.	.	.	.	24cc\JJ	24cccn\JJ
!	!	!	!LO:N:cue	!	!	!	!	!	!	!	!	!	!
.	.	8c/L 8d	8dd/L	8A/L 8f#	.	.	.	.	.	.	.	8d/L	8dd\L
!	!	!	!LO:N:cue	!	!	!	!	!	!	!	!	!	!
8r	.	8c/J 8d	16ee/L	8A/J 8f#	.	.	.	.	.	.	.	16e/L	16ee\L
!	!	!	!LO:N:cue	!	!	!	!	!	!	!	!	!	!
.	.	.	16ff#/JJ	.	.	.	.	.	.	.	.	16f#/JJ	16ff#\JJ
=20	=20	=20	=20	=20	=20	=20	=20	=20	=20	=20	=20	=20	=20
!	!	!	!LO:N:cue	!	!	!	!	!	!	!	!	!	!
4G\	.	8r	16gg/LL	8r	.	.	.	.	.	.	.	16g\LL	16gg\LL
!	!	!	!LO:N:cue	!	!	!	!	!	!	!	!	!	!
.	.	.	16bb/JJ	.	.	.	.	.	.	.	.	16b\JJ	16bb\JJ
!	!	!	!LO:N:cue	!	!	!	!	!	!	!	!	!	!
.	.	8G/L 8d	8eee/L	8B/L 8g	.	.	.	.	.	.	.	8ee\L	8eee\L
!	!	!	!LO:N:cue	!	!	!	!	!	!	!	!	!	!
8r	.	8G/J 8d	8ddd/J	8B/J 8g	.	.	.	.	.	.	.	8dd\J	8ddd\J
!	!	!	!	!	!	!	!	!	!	!	!LO:LB:g=original	!	!
=21	=21	=21	=21	=21	=21	=21	=21	=21	=21	=21	=21	=21	=21
.	.	.	16qqaa/	.	.	.	.	.	.	.	.	8qa/	32qqaa/
!	!	!	!LO:N:cue	!	!	!	!	!	!	!	!	!	!
8G\L	.	8r	16gg/LL	8r	.	1.r	8r	.	8r	.	8r	16g\LL	16gg\LL
!	!	!	!LO:N:cue	!	!	!	!	!	!	!	!	!	!
.	.	.	16ff#/	.	.	.	.	.	.	.	.	16f#\	16ff#\
!	!	!	!LO:N:cue	!	!	!	!	!	!	!	!	!	!
8G\	.	8G/L 8d	16gg/	8B/L 8d	.	.	8d\L	.	8g\L	.	8B/L	16g\	16gg\
!	!	!	!LO:N:cue	!	!	!	!	!	!	!	!	!	!
.	.	.	16aa/	.	.	.	.	.	.	.	.	16a\	16aa\
!	!	!	!LO:N:cue	!	!	!	!	!	!	!	!	!	!
8G\J	.	8G/J 8d	16bb/	8B/J 8d	.	.	8d\J	.	8g\J	.	8B/J	16b\	16bb\
!	!	!	!LO:N:cue	!	!	!	!	!	!	!	!	!	!
.	.	.	16ccc/JJ	.	.	.	.	.	.	.	.	16cc\JJ	16ccc\JJ
!	!	!	!	!	!	!	!	!	!LO:LB:g=original	!	!	!LO:LB:g=original	!LO:LB:g=original
=22	=22	=22	=22	=22	=22	=22	=22	=22	=22	=22	=22	=22	=22
*	*	*rep	*	*	*	*	*	*	*	*	*	*	*
!	!	!	!LO:N:cue	!	!	!	!	!	!	!	!	!	!
8G\L	.	8r	16ccc#X/LL	8r	.	.	8r	.	8r	.	8r	16cc#\LL	(>16ccc#X\LL
!	!	!	!LO:N:cue	!	!	!	!	!	!	!	!	!	!
.	.	.	16ddd/JJ	.	.	.	.	.	.	.	.	16dd\JJ	16ddd\JJ)
!	!	!	!LO:N:cue	!	!	!	!	!	!	!	!	!	!
8G\J	.	8G/L 8d	8gg/L	8B/L 8d	.	.	8d\L	.	8g\L	.	8B/L	8g\L	8gg^<\L
!	!	!	!LO:N:cue	!	!	!	!	!	!	!	!	!	!
8r	.	8G/J 8d	16aa/L	8B/J 8d	.	.	8d\J	.	8g\J	.	8B/J	16a\L	16aa\L
!	!	!	!LO:N:cue	!	!	!	!	!	!	!	!	!	!
.	.	.	16bb/JJ	.	.	.	.	.	.	.	.	16b\JJ	16bb\JJ
!	!	!	!LO:LB:g=original	!LO:LB:g=original	!	!	!	!	!	!	!	!	!
*	*	*Xrep	*	*	*	*	*	*	*	*	*	*	*
=23	=23	=23	=23	=23	=23	=23	=23	=23	=23	=23	=23	=23	=23
!	!	!	!LO:TUP:a:problem:klamra łukowa	!	!	!	!	!	!	!	!	!LO:TUP:a	!LO:TUP:a
!	!	!	!LO:N:cue	!	!	!	!	!	!	!	!	!	!
4D\	.	8r	24aa/LL	8r	.	.	8d\L	.	8f#\L	.	8c/L	24a\LL	24aa\LL
!	!	!	!LO:N:cue	!	!	!	!	!	!	!	!	!	!
.	.	.	24bb/	.	.	.	.	.	.	.	.	24b\	24bb\
!	!	!	!LO:N:cue	!	!	!	!	!	!	!	!	!	!
.	.	.	24ccc/JJ	.	.	.	.	.	.	.	.	24cc\JJ	24cccn\JJ
!	!	!	!LO:N:cue	!	!	!	!	!	!	!	!	!	!
.	.	8c/L 8d	8dd/L	8A/L 8f#	.	.	8d\	.	8f#\	.	8c/	8d/L	8dd\L
!	!	!	!LO:N:cue	!	!	!	!	!	!	!	!	!	!
8r	.	8c/J 8d	16ee/L	8A/J 8f#	.	.	8d\J	.	8f#\J	.	8c/J	16e/L	16ee\L
!	!	!	!LO:N:cue	!	!	!	!	!	!	!	!	!	!
.	.	.	16ff#/JJ	.	.	.	.	.	.	.	.	16f#/JJ	16ff#\JJ
=24	=24	=24	=24	=24	=24	=24	=24	=24	=24	=24	=24	=24	=24
!	!	!	!LO:N:cue	!	!	!LO:TX:a:t=Mazur D&colon;C&colon;	!	!	!	!	!LO:TX:t=P:problem:mixed beam	!	!
8G\L	.	8G/L 8d	8gg/	8B/L 8g	.	.	8d\L	.	8g\L	.	8B/L	8g\L	8gg\L
!	!	!	!LO:N:cue	!	!	!	!	!	!	!	!	!	!
8G\J	.	8G/J 8d	8ggg/	8B/J 8g	.	.	8d\J	.	8g\J	.	8b\J	8gg\J	8ggg^<\J
!LO:TX:a:t=Mazur Da Capo	!	!	!LO:TX:a:t=Mazur Da Capo	!	!	!	!	!	!	!	!	!	!
8r	.	8r	8r	8ryy	.	.	8r	.	8r	.	8r	8r	8r
*	*	*	*v	*v	*	*	*	*	*	*	*	*	*
=:|!	=:|!	=:|!	=:|!	=:|!	=:|!	=:|!	=:|!	=:|!	=:|!	=:|!	=:|!	=:|!
*-	*-	*-	*-	*-	*-	*-	*-	*-	*-	*-	*-	*-
!!!system-decoration: [(s1,s2,s3)][(s4,s5,s6)][(s7,s8,s9)]
!!!RDF**kern: < = below
!!!RDF**kern: > = above
!!!ENC: Andrzej Gręziak
!!!END: 2020-10-03
!!!ENC: Marta Chmielewska
!!!END: 2021-11-02
